X:1
T:Trevithick's Tune
M:6/8
L:1/8
Q:1/4=175
K:G
CxC CDE | AxA Axx | GAG GxE | Gxx Exx |
CxC CDE | AxA Axx | GAG G2E | Dxx Cxx |
dxd dBG | Bxc dxx | cxc cBA | Bxx dxx |
CxC CDE | AxA Axx | GAG GxE | Dxx Cxx ]